media/img/consult-map.svg

<svg width="116" height="112" viewBox="24 20 72 72" fill="none" xmlns="http://www.w3.org/2000/svg">
<path d="M88.5781 75.6186C89.5627 75.1379 90.3521 73.7499 90.3521 72.5137L96.0892 76.3096C96.0892 77.5458 95.2998 78.9338 94.3152 79.4145L88.5781 75.6186Z" fill="#595A44"/>
<path d="M72.9053 83.2725L88.5782 75.6172L94.3153 79.4131L78.6424 87.0684L72.9053 83.2725Z" fill="#595A44"/>
<path d="M90.3525 72.5136V23.2969L96.0896 27.0928V76.3095L90.3525 72.5136Z" fill="#595A44"/>
<path d="M71.71 83.2756C72.0251 83.484 72.4443 83.5001 72.9043 83.2754L78.6414 87.0713C78.1814 87.296 77.7622 87.2799 77.447 87.0715L71.71 83.2756Z" fill="#595A44"/>
<path d="M71.1309 81.9004C71.1309 82.5569 71.3542 83.0377 71.7102 83.2731L77.447 87.0689C77.0912 86.8334 76.8679 86.3527 76.8679 85.6963L71.1309 81.9004Z" fill="#595A44"/>
<path d="M67.2873 81.9004C67.2873 83.1383 66.4932 83.7514 65.5137 83.273L71.2508 87.0689C72.2302 87.5473 73.0244 86.9342 73.0244 85.6963L67.2873 81.9004Z" fill="#595A44"/>
<path d="M90.3527 23.2985C90.3527 22.6422 90.1295 22.1614 89.7737 21.9259L95.5105 25.7217C95.8665 25.9571 96.0898 26.4379 96.0898 27.0944L90.3527 23.2985Z" fill="#595A44"/>
<path d="M89.7728 21.9242C89.4576 21.7157 89.0383 21.6996 88.5781 21.9243L94.3152 25.7202C94.7754 25.4955 95.1947 25.5116 95.5099 25.7201L89.7728 21.9242Z" fill="#595A44"/>
<path d="M71.1309 32.6836V81.9004L76.8679 85.6963V36.4795L71.1309 32.6836Z" fill="#595A44"/>
<path d="M65.5128 83.2725L49.8389 75.6172L55.5759 79.4131L71.2499 87.0684L65.5128 83.2725Z" fill="#595A44"/>
<path d="M67.2871 32.6836V81.9004L73.0242 85.6963V36.4795L67.2871 32.6836Z" fill="#595A44"/>
<path d="M88.5782 21.9258L72.9053 29.5808L78.6424 33.3767L94.3153 25.7217L88.5782 21.9258Z" fill="#595A44"/>
<path d="M72.9045 29.5801C71.9199 30.0611 71.1309 31.4486 71.1309 32.6853L76.8679 36.4812C76.8679 35.2446 77.657 33.857 78.6416 33.376L72.9045 29.5801Z" fill="#595A44"/>
<path d="M49.8391 75.6186C48.8548 75.1379 48.0654 73.7499 48.0654 72.5137L53.8025 76.3096C53.8025 77.3346 54.3453 78.464 55.0918 79.094L55.5762 79.4145C55.408 79.3323 55.2456 79.2238 55.0918 79.094L49.8391 75.6186Z" fill="#595A44"/>
<path d="M67.2873 32.6853C67.2873 31.6596 66.7443 30.5301 65.9974 29.9001L65.5137 29.5801C65.6816 29.6621 65.8438 29.7706 65.9974 29.9001L71.2508 33.376C72.235 33.857 73.0244 35.2446 73.0244 36.4812L67.2873 32.6853Z" fill="#595A44"/>
<path d="M42.4473 75.6286C43.4319 75.1476 44.2209 73.7601 44.2209 72.5234L49.958 76.3193C49.958 77.556 49.169 78.9435 48.1843 79.4246L42.4473 75.6286Z" fill="#595A44"/>
<path d="M26.7744 83.2819L42.4474 75.627L48.1845 79.4229L32.5115 87.0778L26.7744 83.2819Z" fill="#595A44"/>
<path d="M48.0654 72.5136V23.2969L53.8025 27.0928V76.3095L48.0654 72.5136Z" fill="#595A44"/>
<path d="M49.8389 21.9258L65.5128 29.5808L71.2499 33.3767L55.5759 25.7217L49.8389 21.9258Z" fill="#595A44"/>
<path d="M44.2217 72.5214V23.3047L49.9588 27.1006V76.3174L44.2217 72.5214Z" fill="#595A44"/>
<path d="M25.5801 83.2814C25.8953 83.4899 26.3146 83.506 26.7748 83.2812L32.5119 87.0772C32.0517 87.3019 31.6324 87.2858 31.3172 87.0773L25.5801 83.2814Z" fill="#595A44"/>
<path d="M25.001 81.9102C25.001 82.5666 25.2243 83.0474 25.5803 83.2829L31.3171 87.0786C30.9613 86.8431 30.7381 86.3624 30.7381 85.7061L25.001 81.9102Z" fill="#595A44"/>
<path d="M48.0654 23.2969C48.0654 22.059 48.8596 21.4458 49.8391 21.9243L55.5762 25.7202C54.5967 25.2417 53.8025 25.8549 53.8025 27.0928L48.0654 23.2969Z" fill="#595A44"/>
<path d="M44.2219 23.3044C44.2219 22.648 43.9986 22.1673 43.6428 21.9318L49.3797 25.7275C49.7356 25.963 49.959 26.4438 49.959 27.1003L44.2219 23.3044Z" fill="#595A44"/>
<path d="M43.6416 21.9339C43.3264 21.7254 42.9073 21.7094 42.4473 21.9341L48.1843 25.73C48.6444 25.5053 49.0635 25.5213 49.3787 25.7298L43.6416 21.9339Z" fill="#595A44"/>
<path d="M25.001 32.6934V81.9101L30.7381 85.706V36.4893L25.001 32.6934Z" fill="#595A44"/>
<path d="M42.4474 21.9316L26.7744 29.5869L32.5115 33.3828L48.1845 25.7275L42.4474 21.9316Z" fill="#595A44"/>
<path d="M26.775 29.5898C25.7904 30.0705 25.001 31.4585 25.001 32.6947L30.7381 36.4906C30.7381 35.2544 31.5275 33.8664 32.5121 33.3857L26.775 29.5898Z" fill="#595A44"/>
<g filter="url(#filter0_d_1045_13240)">
<path fill-rule="evenodd" clip-rule="evenodd" d="M42.4443 21.9329C43.4236 21.4544 44.2176 22.0676 44.2176 23.3055V72.5222C44.2176 73.7589 43.4287 75.1464 42.4443 75.6274L26.7737 83.2824C25.794 83.7608 25 83.1477 25 81.9098V32.693C25 31.4568 25.7893 30.0688 26.7737 29.5882L42.4443 21.9329ZM88.5672 21.9243C89.5469 21.4458 90.3409 22.059 90.3409 23.2969V72.5136C90.3409 73.7498 89.5516 75.1378 88.5672 75.6185L72.8966 83.2739C71.9173 83.7523 71.1233 83.1392 71.1233 81.9013V32.6845C71.1233 31.4479 71.9122 30.0603 72.8966 29.5793L88.5672 21.9243ZM49.8347 21.9243C48.8554 21.4458 48.0613 22.059 48.0613 23.2969V72.5136C48.0613 73.7498 48.8506 75.1378 49.8347 75.6185L65.5062 83.2739C66.4855 83.7523 67.2796 83.1392 67.2796 81.9013V32.6845C67.2796 31.4479 66.4903 30.0603 65.5062 29.5793L49.8347 21.9243Z" fill="#EBEBEA"/>
</g>
<defs>
<filter id="filter0_d_1045_13240" x="0.326611" y="0.884235" width="114.688" height="111.03" filterUnits="userSpaceOnUse" color-interpolation-filters="sRGB">
<feFlood flood-opacity="0" result="BackgroundImageFix"/>
<feColorMatrix in="SourceAlpha" type="matrix" values="0 0 0 0 0 0 0 0 0 0 0 0 0 0 0 0 0 0 127 0" result="hardAlpha"/>
<feOffset dy="3.79591"/>
<feGaussianBlur stdDeviation="12.3367"/>
<feComposite in2="hardAlpha" operator="out"/>
<feColorMatrix type="matrix" values="0 0 0 0 0 0 0 0 0 0 0 0 0 0 0 0 0 0 0.1 0"/>
<feBlend mode="normal" in2="BackgroundImageFix" result="effect1_dropShadow_1045_13240"/>
<feBlend mode="normal" in="SourceGraphic" in2="effect1_dropShadow_1045_13240" result="shape"/>
</filter>
</defs>
</svg>

<svg width="116" height="112" viewBox="24 20 72 72" fill="none" xmlns="http://www.w3.org/2000/svg"><path d="M88.578 75.619c.985-.481 1.774-1.87 1.774-3.105l5.737 3.796c0 1.236-.79 2.624-1.774 3.105l-5.737-3.796z" fill="#595A44"/><path d="M72.905 83.272l15.673-7.655 5.737 3.796-15.673 7.655-5.737-3.796zm17.448-10.758V23.297l5.737 3.796V76.31l-5.737-3.796zM71.71 83.276c.315.208.734.224 1.194 0l5.737 3.795c-.46.225-.879.209-1.194 0l-5.737-3.795z" fill="#595A44"/><path d="M71.13 81.9c0 .657.224 1.138.58 1.373l5.737 3.796c-.356-.236-.58-.716-.58-1.373L71.132 81.9zm-3.843 0c0 1.238-.794 1.851-1.773 1.373l5.737 3.796c.98.478 1.773-.135 1.773-1.373L67.287 81.9zm23.066-58.601c0-.657-.224-1.138-.58-1.373l5.737 3.796c.356.235.58.716.58 1.372l-5.737-3.796z" fill="#595A44"/><path d="M89.773 21.924c-.315-.208-.735-.224-1.195 0l5.737 3.796c.46-.224.88-.208 1.195 0l-5.737-3.796zM71.13 32.684V81.9l5.738 3.796V36.48l-5.737-3.796zm-5.617 50.588l-15.674-7.655 5.737 3.796 15.674 7.655-5.737-3.796z" fill="#595A44"/><path d="M67.287 32.684V81.9l5.737 3.796V36.48l-5.737-3.796zm21.291-10.758L72.905 29.58l5.737 3.796 15.673-7.655-5.737-3.796z" fill="#595A44"/><path d="M72.904 29.58c-.984.481-1.773 1.869-1.773 3.105l5.737 3.796c0-1.236.789-2.624 1.774-3.105l-5.737-3.796zM49.84 75.619c-.985-.481-1.775-1.87-1.775-3.105l5.738 3.796c0 1.025.542 2.154 1.289 2.784l.484.32a2.368 2.368 0 01-.484-.32l-5.253-3.475zm17.447-42.934c0-1.025-.543-2.155-1.29-2.785l-.483-.32c.168.082.33.19.483.32l5.254 3.476c.984.481 1.773 1.869 1.773 3.105l-5.737-3.796zm-24.84 42.944c.985-.481 1.774-1.869 1.774-3.106l5.737 3.796c0 1.237-.789 2.624-1.774 3.106l-5.737-3.796z" fill="#595A44"/><path d="M26.774 83.282l15.673-7.655 5.737 3.796-15.672 7.655-5.738-3.796zm21.291-10.768V23.297l5.738 3.796V76.31l-5.738-3.796zm1.774-50.588l15.674 7.655 5.737 3.796-15.674-7.655-5.737-3.796z" fill="#595A44"/><path d="M44.222 72.521V23.305l5.737 3.796v49.216l-5.737-3.796zM25.58 83.281c.315.209.735.225 1.195 0l5.737 3.796c-.46.225-.88.209-1.195 0l-5.737-3.796z" fill="#595A44"/><path d="M25.001 81.91c0 .657.223 1.137.58 1.373l5.736 3.796c-.356-.236-.579-.717-.579-1.373l-5.737-3.796zm23.064-58.613c0-1.238.795-1.851 1.774-1.373l5.737 3.796c-.98-.478-1.773.135-1.773 1.373l-5.738-3.796zm-3.843.007c0-.656-.223-1.137-.58-1.372l5.738 3.796c.356.235.579.716.579 1.372l-5.737-3.796z" fill="#595A44"/><path d="M43.642 21.934c-.316-.209-.735-.225-1.195 0l5.737 3.796c.46-.225.88-.209 1.195 0l-5.737-3.796zM25.001 32.693V81.91l5.737 3.796V36.489l-5.737-3.796z" fill="#595A44"/><path d="M42.447 21.932l-15.673 7.655 5.737 3.796 15.673-7.656-5.737-3.795zM26.775 29.59c-.985.48-1.774 1.869-1.774 3.105l5.737 3.796c0-1.237.79-2.625 1.774-3.105l-5.737-3.796z" fill="#595A44"/><g filter="url(#filter0_d_1045_13240)"><path fill-rule="evenodd" clip-rule="evenodd" d="M42.444 21.933c.98-.479 1.774.135 1.774 1.372v49.217c0 1.237-.79 2.624-1.774 3.105l-15.67 7.655c-.98.479-1.774-.134-1.774-1.372V32.693c0-1.236.79-2.624 1.774-3.105l15.67-7.655zm46.123-.009c.98-.478 1.774.135 1.774 1.373v49.217c0 1.236-.79 2.624-1.774 3.105l-15.67 7.655c-.98.478-1.774-.135-1.774-1.373V32.685c0-1.237.79-2.625 1.774-3.106l15.67-7.655zm-38.732 0c-.98-.478-1.774.135-1.774 1.373v49.217c0 1.236.79 2.624 1.774 3.105l15.671 7.655c.98.478 1.774-.135 1.774-1.373V32.685c0-1.237-.79-2.625-1.774-3.106l-15.671-7.655z" fill="#EBEBEA"/></g><defs><filter id="filter0_d_1045_13240" x=".327" y=".884" width="114.688" height="111.03" filterUnits="userSpaceOnUse" color-interpolation-filters="sRGB"><feFlood flood-opacity="0" result="BackgroundImageFix"/><feColorMatrix in="SourceAlpha" values="0 0 0 0 0 0 0 0 0 0 0 0 0 0 0 0 0 0 127 0" result="hardAlpha"/><feOffset dy="3.796"/><feGaussianBlur stdDeviation="12.337"/><feComposite in2="hardAlpha" operator="out"/><feColorMatrix values="0 0 0 0 0 0 0 0 0 0 0 0 0 0 0 0 0 0 0.1 0"/><feBlend in2="BackgroundImageFix" result="effect1_dropShadow_1045_13240"/><feBlend in="SourceGraphic" in2="effect1_dropShadow_1045_13240" result="shape"/></filter></defs></svg>
